X:2
T:Battering Ram, The
R:jig
M:6/8
L:1/8

Z:Jeff Myers

N:Based on the playing of Billy McComiskey

N:Lesl Harker says it is nearly identical to Mike Rafferty’s setting
K:D
B|dBG BAG|dBG G2B|dBG AGE|GED D2 B|\
dBG BAG|B/c/dB BAG|AGA BAB|GED D2:|*
B|deg aga|bge edB|deg aga|bge e/f/ga|\
bag age|ged e/f/ge|dBG AGE|GED D2:|*
d|B2G A2G|B2D D2d|BAG AGE|GED D2d|\
B2G A2G|B/c/dB BAG|AGA BAB|GED D2:|**

 

BATTERING RAM [2]. AKA and see “Queen of the Rushes.” Irish, Jig. D Mixolyidan. Standard tuning. AA'BB'CC'. See also "Banrion na Luachra," "The Ladies March to the Ballroom." Taylor (Where’s the Crack), 1989; pg. 19.

           

BATTEUX, LE (The Grain Mill). French-Canadian, Jig (3/2 or 6/4 time). A Major. AEae tuning. AA’BB’. Hart & Sandell note the tune was an accompaniment for a dance that was performed at grain-threshing ‘bees’ (parties). Source for notated versions: Louis ‘Pitou’ Boudreault (1905-1988, Saguenay region, Québec) [Hart & Sandell, Remon & Bouchard]. Hart & Sandell (Dance ce Soir), 2001; No. 35, pg. 66. Remon & Bouchard (25 Crooked Tunes, Vol. 1: Québec Fiddle Tunes), vol. 1, 1996; No. 5. Green Linnett GLCD 3042, La Bottine Souriante - "Chic & Swell" (1988. Learned from Louis "Pitou" Boudreault). 30 Below TB 001CD, Les têtes de violon (Bouchard et al) – “Airs Tordus/Crooked Tunes” (1998).Voyager 322, Louis Boudreault - "Old Time Fiddler of Chicoutimi, Québec" (1977, 1993).


                                   

BATTLE CALL OF THE FIANNA. AKA and see "Bonaparte Crossing the Alps," "Oro, Welcome Home." Irish, Air. Scanlon, 1923; pg. 63.

                                   

BATTLE EVE, THE. AKA and see "Contented I Am," "Thy Welcome, O'Leary," "Down in the Meadow." Irish, Air (4/4 time). G Minor. Standard tuning. One part. O'Neill (Music of Ireland: 1850 Melodies), 1903/1979; No. 253, pg. 44.

